images/bug21.svg

<svg enable-background="new 0 0 110.979 128.417" viewBox="0 0 110.979 128.417" xmlns="http://www.w3.org/2000/svg"><g transform="translate(.153729 .373816)"><path d="m55.556 127.881-55.139-31.834v-63.67l55.139-31.835 55.14 31.835v63.669z" fill="#fef5d0" stroke="#000" stroke-width="1.8"/><path d="m55.555 10.618-46.482 26.798v53.594l46.482 26.795 46.485-26.795v-53.594zm44.603 79.312-44.603 25.716-44.604-25.716v-51.424l44.604-25.716 44.603 25.716z"/><path d="m55.422 116.822-45.313-26.162v-52.323l45.313-26.162 45.314 26.162v52.323z" fill-opacity=".295238"/></g><g transform="matrix(.13420017 0 0 .13420017 29.014747 29.215627)"><path d="m287.60156 38.398438 8.39844 33.601562h-192l8.39844-33.601562c4.48047-17.839844 20.5625-30.398438 38.96093-30.398438 10.64063 0 20.87891 4.238281 28.40235 11.761719l6.55859 6.558593c3.67969 3.679688 8.5586 5.679688 13.67969 5.679688s10-2 13.67969-5.679688l6.55859-6.558593c7.52344-7.523438 17.76172-11.761719 28.40234-11.761719 9.19922 0 17.83985 3.121094 24.71875 8.480469 6.87891 5.441406 12 12.960937 14.24219 21.917969zm0 0" fill="#d3a06c"/><path d="m296 72 8 32h-208l8-32zm0 0" fill="#dfb28b"/><g fill="#cf9e76"><path d="m304 104c8.80078 0 16 7.19922 16 16 0 4.39844-1.76172 8.39844-4.71875 11.28125-2.88281 2.95703-6.88281 4.71875-11.28125 4.71875h-208c-8.800781 0-16-7.19922-16-16 0-4.39844 1.761719-8.39844 4.71875-11.28125 2.882812-2.95703 6.882812-4.71875 11.28125-4.71875zm0 0"/><path d="m72 480h-64v-104.80078c0-18.32031 12.480469-34.32031 30.320312-38.80078l65.679688-16.39844 96 24 48 16v120zm0 0"/><path d="m328 480h-80v-120l-48-16 96-24 65.67969 16.39844c17.83984 4.48047 30.32031 20.48047 30.32031 38.80078v104.80078zm0 0"/></g><g fill="#b27946"><path d="m296 288v32l-96 24 24-40 32.16016-7.12109zm0 0"/><path d="m296 288-39.83984 8.87891-.16016-.87891v-32zm0 0"/><path d="m176 304 24 40-96-24v-32l39.83984 8.87891zm0 0"/><path d="m144 264v32l-.16016.87891-39.83984-8.87891zm0 0"/></g><path d="m256 264v32l.16016.87891-32.16016 7.12109-24 40-24-40-32.16016-7.12109.16016-.87891v-40l.0781-.32031c16.96094 5.19922 34.64063 8 52.5625 8.24218 1.12112.07813 2.23831.07813 3.3594.07813s2.23828 0 3.35937-.0781c17.92188-.24218 35.60157-3.04296 52.5625-8.24218l.07813.32028zm0 0" fill="#f0d0b4"/><path d="m255.92187 255.67969c-16.96093 5.19922-34.64062 8-52.5625 8.24218 33.83985-1.76171 60.64063-29.68359 60.64063-63.92187s-26.80078-62.16016-60.64063-63.92188c24.40235.40235 48.40235 5.44141 70.5625 14.64063 23.19922 9.60156 44.47657 23.67969 62.63672 41.83984l7.44141 7.44141-7.44141 7.44141c-22.71875 22.71875-50.48047 39.19921-80.63672 48.23828zm0 0" fill="#e6e9ed"/><path d="m136 200c0 34.23828 26.80078 62.16016 60.64062 63.92187-17.92187-.24218-35.60156-3.04296-52.5625-8.24218-30.15624-9.03907-57.917964-25.51953-80.636714-48.23828l-7.441406-7.44141 7.441406-7.44141c35.4375-35.4375 83.199214-55.67968 133.199214-56.48047-33.83984 1.76172-60.64062 29.6836-60.64062 63.92188zm0 0" fill="#e6e9ed"/><path d="m264 200c0 34.23828-26.80078 62.16016-60.64063 63.92187-1.12109.07813-2.23828.07813-3.35937.07813s-2.23828 0-3.35938-.0781c-33.83984-1.76174-60.64062-29.68362-60.64062-63.9219s26.80078-62.16016 60.64062-63.92188c1.1211-.07812 2.23829-.07812 3.35938-.07812l3.35937.0781c33.83985 1.76174 60.64063 29.68362 60.64063 63.9219zm0 0" fill="#69d6f4"/><path d="m232 200c0 17.67187-14.32813 32-32 32-17.67188 0-32-14.32813-32-32 0-17.67188 14.32812-32 32-32 17.67187 0 32 14.32812 32 32zm0 0" fill="#4fc1e9"/><path d="m200 224c-13.23047 0-24-10.76953-24-24 0-4.18359 1.15234-8.25781 3.41406-12.10547l-13.78125-8.125c-3.6875 6.25391-5.63281 13.24609-5.63281 20.23047 0 22.05469 17.94531 40 40 40 6.98437 0 13.97656-1.94531 20.22266-5.63281l-8.125-13.78125c-3.83985 2.26172-7.91407 3.41406-12.09766 3.41406zm0 0"/><path d="m200 160c-6.98438 0-13.97656 1.94531-20.22266 5.63281l8.125 13.78125c3.83985-2.26172 7.91407-3.41406 12.09766-3.41406 13.23047 0 24 10.76953 24 24 0 4.18359-1.15234 8.25781-3.41406 12.10547l13.78125 8.125c3.6875-6.25391 5.63281-13.2461 5.63281-20.23047 0-22.05469-17.94531-40-40-40zm0 0"/><path d="m363.64062 328.66406-59.64062-14.90234v-30.28906l-37.71875-22.63282c28.25391-9.83203 54.16016-25.97656 75.94141-47.75l13.08984-13.08984-13.08984-13.08984c-18.51954-18.51953-40.03907-32.94922-63.42969-42.91016h25.20703c13.23047 0 24-10.76953 24-24 0-10.96875-7.44141-20.144531-17.50391-22.992188l-15.1289-60.527343c-5.375-21.480469-24.58985-36.480469-46.72657-36.480469-12.86328 0-24.96875 5.007812-34.0664 14.113281l-6.56641 6.566407c-4.26562 4.257812-11.76172 4.242187-16.00781.007812l-6.57422-6.574219c-9.09766-9.105469-21.20312-14.113281-34.06641-14.113281-22.13671 0-41.35156 15-46.72656 36.488281l-15.128904 60.519531c-10.0625 2.847657-17.503906 12.023438-17.503906 22.992188 0 13.23047 10.769531 24 24 24h25.20703c-23.390624 9.96094-44.910155 24.39063-63.429686 42.91016l-13.089844 13.08984 13.089844 13.08984c21.78125 21.78125 47.687496 37.91797 75.941406 47.75l-37.71875 22.63282v30.28906l-59.640625 14.90234c-21.40625 5.35156-36.359375 24.50391-36.359375 46.56641v112.76953h400v-112.76953c0-22.0625-14.95313-41.21485-36.35938-46.56641zm-251.64062-30.6875 58.90234 13.08594 12.29688 20.49609-71.19922-17.80468zm32-97.97656c0-30.87109 25.12891-56 56-56s56 25.12891 56 56-25.12891 56-56 56-56-25.12891-56-56zm74.90234 96.9375-18.90234 31.51172-18.90234-31.51172-29.09766-6.46484v-24.22657c15.52734 3.78516 31.60937 5.75391 48 5.75391 16.39062 0 32.47266-1.96875 48-5.75391v24.22657zm45.09766-18.80859 10.67969 6.40625-10.67969 2.375zm-128 8.78125-10.67969-2.375 10.67969-6.40625zm93.09766 24.15234 58.90234-13.08594v15.77735l-71.20703 17.80468zm103.58984-111.0625-1.77734 1.77734c-22.00782 22.00782-48.58985 37.76563-77.59766 46.4375 11.57422-12.77343 18.6875-29.66406 18.6875-48.21484s-7.11328-35.44141-18.67969-48.21484c29 8.67968 55.58203 24.42968 77.60156 46.4375zm-212.53516-159.632812c3.58985-14.351563 16.42188-24.367188 31.20703-24.367188 8.59375 0 16.67188 3.34375 22.75391 9.425781l6.57422 6.574219c5.08984 5.089844 12.12891 8 19.3125 8 7.28125 0 14.14453-2.832031 19.3125-8l6.57422-6.574219c6.08203-6.082031 14.16015-9.425781 22.7539-9.425781 14.78516 0 27.61719 10.015625 31.20704 24.359375l5.91406 23.640625h-37.76172v16h41.76172l4 16h-187.52344l4-16h121.76172v-16h-117.76172zm-24.15234 87.632812c-4.414062 0-8-3.58594-8-8s3.585938-8 8-8h208c4.41406 0 8 3.58594 8 8s-3.58594 8-8 8zm-28.6875 72 1.777344-1.77734c22.007812-22.00782 48.589846-37.76563 77.597656-46.4375-11.57422 12.77343-18.6875 29.66406-18.6875 48.21484s7.11328 35.44141 18.67969 48.21484c-29-8.67968-55.582034-24.42968-77.601565-46.4375zm-51.3125 175.23047c0-14.71094 9.96875-27.48828 24.230469-31.05469l63.753911-15.9375 93.70312 23.41797 42.3125 14.11328v106.23047h-160v-96h-16v96h-48zm368 96.76953h-48v-96h-16v96h-64v-117.76953l-27.40625-9.13281 67.42187-16.85157 63.75391 15.9375c14.26172 3.57032 24.23047 16.33594 24.23047 31.04688zm0 0"/><path d="m208 376h16v16h-16zm0 0"/><path d="m208 408h16v16h-16zm0 0"/><path d="m176 376h16v16h-16zm0 0"/><path d="m176 408h16v16h-16zm0 0"/></g></svg>

<?xml version="1.0" encoding="UTF-8" standalone="no"?>
<!-- Generator: Adobe Illustrator 21.0.2, SVG Export Plug-In . SVG Version: 6.00 Build 0)  -->

<svg
   xmlns:dc="http://purl.org/dc/elements/1.1/"
   xmlns:cc="http://creativecommons.org/ns#"
   xmlns:rdf="http://www.w3.org/1999/02/22-rdf-syntax-ns#"
   xmlns:svg="http://www.w3.org/2000/svg"
   xmlns="http://www.w3.org/2000/svg"
   xmlns:sodipodi="http://sodipodi.sourceforge.net/DTD/sodipodi-0.dtd"
   xmlns:inkscape="http://www.inkscape.org/namespaces/inkscape"
   version="1.1"
   x="0px"
   y="0px"
   viewBox="0 0 110.979 128.417"
   enable-background="new 0 0 110.979 128.417"
   xml:space="preserve"
   id="svg415"
   sodipodi:docname="eth9.svg"
   inkscape:version="0.92.2 5c3e80d, 2017-08-06"><metadata
     id="metadata421"><rdf:RDF><cc:Work
         rdf:about=""><dc:format>image/svg+xml</dc:format><dc:type
           rdf:resource="http://purl.org/dc/dcmitype/StillImage" /><dc:title></dc:title></cc:Work></rdf:RDF></metadata><defs
     id="defs419" /><sodipodi:namedview
     pagecolor="#ffffff"
     bordercolor="#666666"
     borderopacity="1"
     objecttolerance="10"
     gridtolerance="10"
     guidetolerance="10"
     inkscape:pageopacity="0"
     inkscape:pageshadow="2"
     inkscape:window-width="2560"
     inkscape:window-height="1348"
     id="namedview417"
     showgrid="false"
     inkscape:zoom="6.8469426"
     inkscape:cx="82.333629"
     inkscape:cy="64.147295"
     inkscape:window-x="0"
     inkscape:window-y="1"
     inkscape:window-maximized="1"
     inkscape:current-layer="svg415"
     showguides="true"
     inkscape:guide-bbox="true" /><g
     id="g5"
     transform="translate(0.15372898,0.37381641)"
     style="fill:#fef5d0;fill-opacity:1;stroke:#000000;stroke-opacity:1;stroke-width:1.8;stroke-miterlimit:4;stroke-dasharray:none"><polygon
       style="fill:#fef5d0;fill-opacity:1;stroke:#000000;stroke-opacity:1;stroke-width:1.8;stroke-miterlimit:4;stroke-dasharray:none"
       id="polygon3"
       points="55.556,127.881 0.417,96.047 0.417,32.377 55.556,0.542 110.696,32.377 110.696,96.046 " /></g><g
     id="Layer_1" /><g
     id="g13"
     enable-background="new    "
     transform="translate(0.15372898,0.37381641)"
     style="fill:#000000;fill-opacity:1"><path
       style="fill:#000000;fill-opacity:1"
       inkscape:connector-curvature="0"
       id="path11"
       d="M 55.555,10.618 9.073,37.416 V 91.01 L 55.555,117.805 102.04,91.01 V 37.416 Z M 100.158,89.93 55.555,115.646 10.951,89.93 V 38.506 L 55.555,12.79 100.158,38.506 Z" /></g><g
     id="g9"
     transform="translate(0.15372898,0.37381641)"
     style="fill:#000000;fill-opacity:0.29523811"><polygon
       style="fill:#000000;fill-opacity:0.29523811"
       id="polygon7"
       points="55.422,116.822 10.109,90.66 10.109,38.337 55.422,12.175 100.736,38.337 100.736,90.66 " /></g><g
     id="g11015"
     transform="matrix(0.13420017,0,0,0.13420017,29.014747,29.215627)"><path
       id="path10941"
       d="M 287.60156,38.398438 296,72 H 104 l 8.39844,-33.601562 C 116.87891,20.558594 132.96094,8 151.35937,8 162,8 172.23828,12.238281 179.76172,19.761719 l 6.55859,6.558593 C 190,30 194.87891,32 200,32 c 5.12109,0 10,-2 13.67969,-5.679688 l 6.55859,-6.558593 C 227.76172,12.238281 238,8 248.64062,8 c 9.19922,0 17.83985,3.121094 24.71875,8.480469 6.87891,5.441406 12,12.960937 14.24219,21.917969 z m 0,0"
       inkscape:connector-curvature="0"
       style="fill:#d3a06c" /><path
       id="path10943"
       d="m 296,72 8,32 H 96 l 8,-32 z m 0,0"
       inkscape:connector-curvature="0"
       style="fill:#dfb28b" /><path
       id="path10945"
       d="m 304,104 c 8.80078,0 16,7.19922 16,16 0,4.39844 -1.76172,8.39844 -4.71875,11.28125 C 312.39844,134.23828 308.39844,136 304,136 H 96 c -8.800781,0 -16,-7.19922 -16,-16 0,-4.39844 1.761719,-8.39844 4.71875,-11.28125 C 87.601562,105.76172 91.601562,104 96,104 Z m 0,0"
       inkscape:connector-curvature="0"
       style="fill:#cf9e76" /><path
       id="path10947"
       d="M 72,480 H 8 V 375.19922 C 8,356.87891 20.480469,340.87891 38.320312,336.39844 L 104,320 l 96,24 48,16 v 120 z m 0,0"
       inkscape:connector-curvature="0"
       style="fill:#cf9e76" /><path
       id="path10949"
       d="M 328,480 H 248 V 360 l -48,-16 96,-24 65.67969,16.39844 C 379.51953,340.87891 392,356.87891 392,375.19922 V 480 Z m 0,0"
       inkscape:connector-curvature="0"
       style="fill:#cf9e76" /><g
       id="g10959"
       style="fill:#b27946"><path
         id="path10951"
         d="m 296,288 v 32 l -96,24 24,-40 32.16016,-7.12109 z m 0,0"
         inkscape:connector-curvature="0" /><path
         id="path10953"
         d="M 296,288 256.16016,296.87891 256,296 v -32 z m 0,0"
         inkscape:connector-curvature="0" /><path
         id="path10955"
         d="m 176,304 24,40 -96,-24 v -32 l 39.83984,8.87891 z m 0,0"
         inkscape:connector-curvature="0" /><path
         id="path10957"
         d="m 144,264 v 32 l -0.16016,0.87891 L 104,288 Z m 0,0"
         inkscape:connector-curvature="0" /></g><path
       id="path10961"
       d="m 256,264 v 32 l 0.16016,0.87891 L 224,304 200,344 176,304 143.83984,296.87891 144,296 v -40 l 0.0781,-0.32031 c 16.96094,5.19922 34.64063,8 52.5625,8.24218 C 197.76172,264 198.87891,264 200,264 c 1.12109,0 2.23828,0 3.35937,-0.0781 17.92188,-0.24218 35.60157,-3.04296 52.5625,-8.24218 L 256,256 Z m 0,0"
       inkscape:connector-curvature="0"
       style="fill:#f0d0b4" /><path
       id="path10963"
       d="m 255.92187,255.67969 c -16.96093,5.19922 -34.64062,8 -52.5625,8.24218 C 237.19922,262.16016 264,234.23828 264,200 c 0,-34.23828 -26.80078,-62.16016 -60.64063,-63.92188 24.40235,0.40235 48.40235,5.44141 70.5625,14.64063 23.19922,9.60156 44.47657,23.67969 62.63672,41.83984 L 344,200 l -7.44141,7.44141 c -22.71875,22.71875 -50.48047,39.19921 -80.63672,48.23828 z m 0,0"
       inkscape:connector-curvature="0"
       style="fill:#e6e9ed" /><path
       id="path10965"
       d="m 136,200 c 0,34.23828 26.80078,62.16016 60.64062,63.92187 -17.92187,-0.24218 -35.60156,-3.04296 -52.5625,-8.24218 -30.15624,-9.03907 -57.917964,-25.51953 -80.636714,-48.23828 L 56,200 63.441406,192.55859 C 98.878906,157.12109 146.64062,136.87891 196.64062,136.07812 162.80078,137.83984 136,165.76172 136,200 Z m 0,0"
       inkscape:connector-curvature="0"
       style="fill:#e6e9ed" /><path
       id="path10967"
       d="m 264,200 c 0,34.23828 -26.80078,62.16016 -60.64063,63.92187 C 202.23828,264 201.12109,264 200,264 c -1.12109,0 -2.23828,0 -3.35938,-0.0781 C 162.80078,262.16016 136,234.23828 136,200 136,165.76172 162.80078,137.83984 196.64062,136.07812 197.76172,136 198.87891,136 200,136 l 3.35937,0.0781 C 237.19922,137.83984 264,165.76172 264,200 Z m 0,0"
       inkscape:connector-curvature="0"
       style="fill:#69d6f4" /><path
       id="path10969"
       d="m 232,200 c 0,17.67187 -14.32813,32 -32,32 -17.67188,0 -32,-14.32813 -32,-32 0,-17.67188 14.32812,-32 32,-32 17.67187,0 32,14.32812 32,32 z m 0,0"
       inkscape:connector-curvature="0"
       style="fill:#4fc1e9" /><path
       id="path10971"
       d="m 200,224 c -13.23047,0 -24,-10.76953 -24,-24 0,-4.18359 1.15234,-8.25781 3.41406,-12.10547 l -13.78125,-8.125 C 161.94531,186.02344 160,193.01562 160,200 c 0,22.05469 17.94531,40 40,40 6.98437,0 13.97656,-1.94531 20.22266,-5.63281 l -8.125,-13.78125 C 208.25781,222.84766 204.18359,224 200,224 Z m 0,0"
       inkscape:connector-curvature="0" /><path
       id="path10973"
       d="m 200,160 c -6.98438,0 -13.97656,1.94531 -20.22266,5.63281 l 8.125,13.78125 C 191.74219,177.15234 195.81641,176 200,176 c 13.23047,0 24,10.76953 24,24 0,4.18359 -1.15234,8.25781 -3.41406,12.10547 l 13.78125,8.125 C 238.05469,213.97656 240,206.98437 240,200 c 0,-22.05469 -17.94531,-40 -40,-40 z m 0,0"
       inkscape:connector-curvature="0" /><path
       id="path10975"
       d="M 363.64062,328.66406 304,313.76172 v -30.28906 l -37.71875,-22.63282 c 28.25391,-9.83203 54.16016,-25.97656 75.94141,-47.75 L 355.3125,200 342.22266,186.91016 C 323.70312,168.39063 302.18359,153.96094 278.79297,144 H 304 c 13.23047,0 24,-10.76953 24,-24 0,-10.96875 -7.44141,-20.144531 -17.50391,-22.992188 L 295.36719,36.480469 C 289.99219,15 270.77734,0 248.64062,0 235.77734,0 223.67187,5.007812 214.57422,14.113281 l -6.56641,6.566407 C 203.74219,24.9375 196.24609,24.921875 192,20.6875 l -6.57422,-6.574219 C 176.32812,5.007812 164.22266,0 151.35937,0 129.22266,0 110.00781,15 104.63281,36.488281 L 89.503906,97.007812 C 79.441406,99.855469 72,109.03125 72,120 c 0,13.23047 10.769531,24 24,24 h 25.20703 c -23.390624,9.96094 -44.910155,24.39063 -63.429686,42.91016 L 44.6875,200 57.777344,213.08984 c 21.78125,21.78125 47.687496,37.91797 75.941406,47.75 L 96,283.47266 v 30.28906 L 36.359375,328.66406 C 14.953125,334.01562 0,353.16797 0,375.23047 V 488 H 400 V 375.23047 c 0,-22.0625 -14.95313,-41.21485 -36.35938,-46.56641 z M 112,297.97656 170.90234,311.0625 183.19922,331.55859 112,313.75391 Z M 144,200 c 0,-30.87109 25.12891,-56 56,-56 30.87109,0 56,25.12891 56,56 0,30.87109 -25.12891,56 -56,56 -30.87109,0 -56,-25.12891 -56,-56 z M 218.90234,296.9375 200,328.44922 181.09766,296.9375 152,290.47266 V 266.24609 C 167.52734,270.03125 183.60937,272 200,272 c 16.39062,0 32.47266,-1.96875 48,-5.75391 v 24.22657 z M 264,278.12891 274.67969,284.53516 264,286.91016 Z m -128,8.78125 -10.67969,-2.375 L 136,278.12891 Z M 229.09766,311.0625 288,297.97656 v 15.77735 l -71.20703,17.80468 z M 332.6875,200 l -1.77734,1.77734 c -22.00782,22.00782 -48.58985,37.76563 -77.59766,46.4375 C 264.88672,235.44141 272,218.55078 272,200 c 0,-18.55078 -7.11328,-35.44141 -18.67969,-48.21484 29,8.67968 55.58203,24.42968 77.60156,46.4375 z M 120.15234,40.367188 C 123.74219,26.015625 136.57422,16 151.35937,16 c 8.59375,0 16.67188,3.34375 22.75391,9.425781 L 180.6875,32 c 5.08984,5.089844 12.12891,8 19.3125,8 7.28125,0 14.14453,-2.832031 19.3125,-8 l 6.57422,-6.574219 C 231.96875,19.34375 240.04687,16 248.64062,16 c 14.78516,0 27.61719,10.015625 31.20704,24.359375 L 285.76172,64 H 248 v 16 h 41.76172 l 4,16 H 106.23828 l 4,-16 H 232 V 64 H 114.23828 Z M 96,128 c -4.414062,0 -8,-3.58594 -8,-8 0,-4.41406 3.585938,-8 8,-8 h 208 c 4.41406,0 8,3.58594 8,8 0,4.41406 -3.58594,8 -8,8 z m -28.6875,72 1.777344,-1.77734 C 91.097656,176.21484 117.67969,160.45703 146.6875,151.78516 135.11328,164.55859 128,181.44922 128,200 c 0,18.55078 7.11328,35.44141 18.67969,48.21484 -29,-8.67968 -55.582034,-24.42968 -77.601565,-46.4375 z M 16,375.23047 c 0,-14.71094 9.96875,-27.48828 24.230469,-31.05469 L 103.98438,328.23828 197.6875,351.65625 240,365.76953 V 472 H 80 V 376 H 64 v 96 H 16 Z M 384,472 h -48 v -96 h -16 v 96 H 256 V 354.23047 l -27.40625,-9.13281 67.42187,-16.85157 63.75391,15.9375 C 374.03125,347.75391 384,360.51953 384,375.23047 Z m 0,0"
       inkscape:connector-curvature="0" /><path
       id="path10977"
       d="m 208,376 h 16 v 16 h -16 z m 0,0"
       inkscape:connector-curvature="0" /><path
       id="path10979"
       d="m 208,408 h 16 v 16 h -16 z m 0,0"
       inkscape:connector-curvature="0" /><path
       id="path10981"
       d="m 176,376 h 16 v 16 h -16 z m 0,0"
       inkscape:connector-curvature="0" /><path
       id="path10983"
       d="m 176,408 h 16 v 16 h -16 z m 0,0"
       inkscape:connector-curvature="0" /></g><g
     id="border" /><g
     id="g6263"
     transform="matrix(0.04851667,0,0,0.04165631,44.135969,68.925307)" /><g
     id="g6265"
     transform="matrix(0.04851667,0,0,0.04165631,44.135969,68.925307)" /><g
     id="g6267"
     transform="matrix(0.04851667,0,0,0.04165631,44.135969,68.925307)" /><g
     id="g6269"
     transform="matrix(0.04851667,0,0,0.04165631,44.135969,68.925307)" /><g
     id="g6271"
     transform="matrix(0.04851667,0,0,0.04165631,44.135969,68.925307)" /><g
     id="g6273"
     transform="matrix(0.04851667,0,0,0.04165631,44.135969,68.925307)" /><g
     id="g6275"
     transform="matrix(0.04851667,0,0,0.04165631,44.135969,68.925307)" /><g
     id="g6277"
     transform="matrix(0.04851667,0,0,0.04165631,44.135969,68.925307)" /><g
     id="g6279"
     transform="matrix(0.04851667,0,0,0.04165631,44.135969,68.925307)" /><g
     id="g6281"
     transform="matrix(0.04851667,0,0,0.04165631,44.135969,68.925307)" /><g
     id="g6283"
     transform="matrix(0.04851667,0,0,0.04165631,44.135969,68.925307)" /><g
     id="g6285"
     transform="matrix(0.04851667,0,0,0.04165631,44.135969,68.925307)" /><g
     id="g6287"
     transform="matrix(0.04851667,0,0,0.04165631,44.135969,68.925307)" /><g
     id="g6289"
     transform="matrix(0.04851667,0,0,0.04165631,44.135969,68.925307)" /><g
     id="g6291"
     transform="matrix(0.04851667,0,0,0.04165631,44.135969,68.925307)" /></svg>
